X:1
T:Sia benedett'amore
T:Sia benedett'amore 
T:Jhan Gero
T:Source : Trium vocum cantiones---Nürnberg---J.Petreius---1541. Editor : André Vierendeels (23/09/16).
T:Notes : Original clefs : C4, C4, F4 Editorial accidentals above the staff Original note values have been halved
T:©
T:©
T:©
T:©
T:©
C:Jhan Gero
Z:©
%%score [ 1 2 3 ]
L:1/8
Q:1/4=96
M:2/2
K:F
V:1 treble-8 nm="Tenor 1" snm="T 1"
V:2 treble-8 nm="Tenor 2" snm="T 2"
V:3 bass nm="Bass" snm="B"
V:1
 c4 c2 A2 | d2 c2 B4 | A2 c2 c3 B | A2 G2 F2 A2 | G2 F4 E2 | F8 | f4 f2 f2 | d2 d2 e4 | %8
w: Sia be- ne|dett' a- mo-|re, e chion- *|* que'l se- gue|ogn'- ho- *|ra,|be- ne- bet|te sue fa-|
 c2 c2 f3 e | d2 c4 B2 | c4 z2 e2 | e2 e2 f2 d2 | e4 c4 | z2 f2 e2 d2 | c3 B A2 c2 | B2 A2 G4 | %16
w: ce, i stra- li'e|l'ar- * *|co, i|quai pa- rend' a-|ma- ri,|re- can poi|sec' al fin dol-|ce re- sto-|
 F4 c4 | c6 c2 | d4 d4 | c4 z2 c2 | d2 e2 f2 e2 | c2 d2 G2 c2 | B2 A3 G G2 | FE A4 G2 | A4 c4 | %25
w: ro, be-|at' e|ben co-|lui, che|so- fre per a-|mor tor- ment', e|no- * * *||ia, che|
 c2 c2 A2 B2 | G4 G2 c2 | c2 c2 c4- | c2 c2 B2 A2 | G2 F2 B4 | A4 c4 | c6 c2 | d4 d4 | c8 | %34
w: po- scia pien- di|gio- ia in|for- tu- na|_ to sta- to|si ri- tro-|va, ren-|dian gli|gra- ti'a-|don-|
 c4 d2 e2 | f4 e4- | e8 | z2 c2 f4 | e4 z2 c2 | d4 e4 | z2 c2 d4 | e4 c4 | A2 B2 G4 | F8 | z4 c4 | %45
w: que con bon|co- re,|_|e gri-|diam viv'|a- mor,|e gri-|diam, vi-|va l'a- mo-|re,|e|
 f4 e4 | z2 c2 d4 | e4 z2 c2 | d4 e4 | c4 A2 B2 | G4 F4 | c4 d2 c2 | B4 A4- | A8 |] %54
w: gri- diam,|viv' a-|mor, e-|gri- diam|vi- va- l'a-|mo- re,|vi- va l'a-|mo- re.|_|
V:2
 F4 F2 F2 | D2 F4 E2 | F3 G A4 | z8 | z4 G4 | c6 c2 | A2 A2 d4 | B4 c3 B | A2 G2 F4- | F2 E2 D4 | %10
w: Sia be- ne|dett' a- mo-|re, _ _||be-|ne- det-|te sue fa-|ce'i stra- *|* li'e lar-||
 C4 z2 c2 | c2 c2 A2 B2 | c4 A2 F2 | G2 F2 G2 G2 | A3 G/F/ E2 A2 | G2 F4 E2 | F4 A4 | A6 A2 | B8 | %19
w: co, i-|quai pa- rend' a-|ma- ri, re-|can poi sec' al|fin _ _ _ dol-|ce re- sto-|ro, be-|at' e|ben|
 A8 | G4 z2 G2 | A2 B2 c2 A2 | G2 c2 d4- | d2 c2 B4 | A4 z2 G2 | A2 G2 F2 F2 | E4 E2 G2 | %27
w: co-|lui, che|so- fre per a-|mor tor- ment'|_ e no-|ia, che|po- scia pien- di|gio- ia oin|
 G2 G2 A4- | A2 G2 F2 E2 | D2 C2 D2 E2 | F8 | G4 G2 G2 | B4 B4 | G4 G2 G2 | A3 G AB c2- | %35
w: for- tu- na-|* to sta- to|si ri- tro- *|va,|ren- dian gli|gra- ti'a-|don- que con|bon _ _ _ co-|
 c2 B2 c4 | z2 G2 c4 | A4 z2 F2 | G4 A4 | z2 F2 G4 | A4 z2 F2 | G4 A2 G2- | GF F4 E2 | F4 z2 A2 | %44
w: * * re,|e gri-|diam, viv'|a- mor,|e gri-|diam vi-|vo l'a- mo-||re, e|
 c4 A4 | z2 F2 G4 | A4 z2 F2 | G4 A4 | z2 F2 G4 | A2 G3 F F2- | F2 E2 F4- | F8- | F8- | F8 |] %54
w: gri- diam,|viv' a-|mor, e|gri- diam,|vi- va|l'a- mo- * *|* * re.|_|||
V:3
 F,,4 F,,2 F,,2 | B,,2 A,,2 G,,4 | F,,4 F,4 | F,2 E,2 D,2 C,2 |"^-natural" B,,A,,G,,F,, G,,4 | %5
w: Sia be- ne-|dett' a- mo-|re, e|chion- que'l se- gue|ohn'- * * * ho-|
 F,,4 F,4 | F,2 F,2 D,2 D,2 | G,4 C,4 | F,3 E, D,C, B,,2- | B,,2 C,2 G,,4 | z2 C,2 C,4- | %11
w: ra, be-|ne- det- te sue|fa- ce'i|stra- * * * li'e|_ l'ar- co,|i quai|
 C,2 C,2 D,2 D,2 | C,2 C,2 F,4 | E,2 D,2 C,2 B,,2 | A,,6 F,,2 | G,,2 A,,2 B,,2 C,2 | F,,4 F,4 | %17
w: _ pa- rend' a-|ma- ri, re-|can poi sec' al|fin dol-|ce re- sto- *|ro, be-|
 F,6 F,2 | B,,4 B,,4 | F,8 | z2 C,2 D,2 E,2 | F,2 D,2 C,2 F,,2 | G,,2 A,,2 B,,4 | %23
w: at' e|ben co-|lui,|che so- fre|per a- mor tor-|ment' e no-|
 A,,2 C,2 D,2 E,2 | F,4 C,4 | C,2 C,2 D,2 B,,2 | C,4 C,2 C,2 | C,2 C,2 F,4- | F,2 E,2 D,2 C,2 | %29
w: ia, e no- ia,|che po-|scia pien _ di|gio- ia in|for- tu- na-|* to sta- to|
 B,,2 A,,2 G,,4 | F,,8 | C,4 C,2 C,2 | B,,4 B,,4 | C,4 C,2 C,2 | F,3 E, D,2 C,2 | D,4 C,4- | %36
w: si ri- tro-|va,|ren- dian gli|gra- ti'a-|don- que con|bon _ _ co-|* re,|
 C,4 z2 C,2 | F,4 D,4 | z2 C,2 F,4 | D,4 z2 C,2 | F,4 D,4 | C,8 | D,2 B,,2 C,4 | F,,8 | %44
w: _ e-|gri- diam,|viv' a-|mor, e|gri- diam|vi-|vo l'a- mo-|re,|
 z2 C,2 F,4 | D,4 z2 C,2 | F,4 D,4 | z2 C,2 F,4 | D,4 C,4- | C,4 D,2 B,,2 | C,4 F,,4 | %51
w: e- gri-|diam, viv'|a- mor,|e- gri-|diam vi-|* vo l'a-|mo- re,|
 z2 F,,2 B,,2 A,,2 | B,,4 F,,4- | F,,8 |] %54
w: vi- va l'a-|mo- re.|_|

